!!!COM: Scriabin, Alexander
!!!OTL: Mazurka
!!!OPR: 9 Mazurkas
!!!OPS: 25
!!!ONM: 4
!!!ODT: 1899
!!!AGN: Mazurka
**kern	**kern
*staff2	*staff1
*clefF4	*clefG2
*k[f#c#g#d#]	*k[f#c#g#d#]
*E:	*E:
*M3/4	*M3/4
=1	=1
*^	*^
4rc	[2.BB	8raa	4rc
.	.	8B	.
4rc	.	8eL	[2e
.	.	8f#J	.
[4A	.	8cc#L	.
.	.	16r	.
.	.	16g#Jk	.
=2	=2	=2	=2
4A]	2BB]	4b	4e]
[2A	.	8c#L	8rc
.	.	8d#	[4.d#
.	4BB	8g#	.
.	.	8f#J	.
=3	=3	=3	=3
4A]	2C#	8f#L	8d#L]
.	.	8eJ	8eJ
4G#	.	4.b	4e
4E	4GG#	.	4B
.	.	8d#	.
=4	=4	=4	=4
[2.E	4rEE	2d#	2.B
.	4GG#	.	.
.	4GGn	[4c#	.
=5	=5	=5	=5
4E]	4FF#	8c#L]	4rc
.	.	8f#	.
4rc	4rEE	8b	[2b
.	.	8cc#J	.
[4e	[4F#	8gg#L	.
.	.	16r	.
.	.	16dd#Jk	.
=6	=6	=6	=6
4e]	2F#]	4ff#	4b]
[2e	.	8g#L	8rc
.	.	8a#X	[4.a#
.	4F#	8dd#	.
.	.	8cc#J	.
=7	=7	=7	=7
4e]	2G#	8cc#L	8a#L]
.	.	8bJ	8bJ
4d#	.	4.ff#	4b
4B	4D#	.	4f#
.	.	8a#X	.
=8	=8	=8	=8
2.B	4rEE	2a#X	2.f#
.	4D#	.	.
.	4Dn	[4g#	.
*	*	*v	*v
=9	=9	=9
*	*^	*
2f#	8BL	2.C#\	8g#L]
.	8A#XJ	.	8a#X
.	4G#	.	8b
.	.	.	8dd#J
4e	4B	.	12eeL
.	.	.	12aa#X
.	.	.	12gg#J
=10	=10	=10	=10
2.e	4B	2.F#\	8ff#L
.	.	.	8b
.	4A#X	.	8dd#
.	.	.	8cc#
.	4An	.	8g#
.	.	.	[8f#J
=11	=11	=11	=11
2e	8AL	2.BB\	8f#L]
.	8G#J	.	8g#
.	4F#	.	8a
.	.	.	8cc#J
4dn	4A	.	12ddnL
.	.	.	12gg#
.	.	.	24r
.	.	.	24ff#Jk
=12	=12	=12	=12
2.dn	4A	2.E\	8eeL
.	.	.	8a
.	4G#	.	8cc#
.	.	.	8e
.	8F##XL	.	8b
.	8G#J	.	8b#XJ
=13	=13	=13	=13
4.c#	16%3G#	2.AA\	[2.cc#
.	16%3A	.	.
4.e	16%3G#	.	.
.	16%3Gn	.	.
=14	=14	=14	=14
4rc	2.F#	4r	8cc#L]
.	.	.	8e
2e	.	4r	8f#
.	.	.	8cc#
.	.	4AA#X\	8ff#
.	.	.	8dd#J
*v	*v	*v	*
=15	=15
2.BB 2.An 2.e	8cc#L
.	8b
.	8ee
.	8ff#
.	8ddd#
.	8ccc#J
=16	=16
2.BB 2.F# 2.e	8bbL
.	8cc#
.	8aa
.	8gg#J
.	12ff#L
.	12ee
.	12cc#J
=17	=17
*^	*^
4rc	[2.BB	8raa	4rc
.	.	8B	.
4rc	.	8eL	[2e
.	.	8f#J	.
[4A	.	8cc#L	.
.	.	16r	.
.	.	16g#Jk	.
=18	=18	=18	=18
4A]	2BB]	4b	4e]
[2A	.	8c#L	8rc
.	.	8d#	[4.d#
.	4BB	8g#	.
.	.	8f#J	.
=19	=19	=19	=19
4A]	2C#	8f#L	8d#L]
.	.	8eJ	8eJ
4G#	.	4.b	4e
4E	4GG#	.	4B
.	.	8d#	.
=20	=20	=20	=20
[2.E	4rEE	2d#	2.B
.	4GG#	.	.
.	4GGn	[4c#	.
=21	=21	=21	=21
4E]	4FF#	8c#L]	4rc
.	.	8f#	.
4rc	4rEE	8b	[2b
.	.	8cc#J	.
[4e	[4F#	8gg#L	.
.	.	16r	.
.	.	16dd#Jk	.
=22	=22	=22	=22
4e]	2F#]	4ff#	4b]
[2e	.	8g#L	8rc
.	.	8a#X	[4.a#
.	4F#	8dd#	.
.	.	8cc#J	.
=23	=23	=23	=23
4e]	2G#	8cc#L	8a#L]
.	.	8bJ	8bJ
4d#	.	4.ff#	4b
4B	4D#	.	4f#
.	.	8a#X	.
=24	=24	=24	=24
2.B	4rEE	2a#X	2.f#
.	4D#	.	.
.	4Dn	[4g#	.
*	*	*v	*v
=25	=25	=25
*	*^	*
2f#	8BL	2.C#\	8g#L]
.	8A#XJ	.	8a#X
.	4G#	.	8b
.	.	.	8dd#J
4e	4B	.	12eeL
.	.	.	12aa#X
.	.	.	12gg#J
=26	=26	=26	=26
2.e	4B	2.F#\	8ff#L
.	.	.	8b
.	4A#X	.	8dd#
.	.	.	8cc#
.	4An	.	8g#
.	.	.	[8f#J
=27	=27	=27	=27
2e	8AL	2.BB\	8f#L]
.	8G#J	.	8g#
.	4F#	.	8a
.	.	.	8cc#J
4dn	4A	.	12ddnL
.	.	.	12gg#
.	.	.	24r
.	.	.	24ff#Jk
=28	=28	=28	=28
2dn	4A	2.E\	8eeL
.	.	.	8a
.	4G#	.	8cc#
.	.	.	8e
4rc	8F##XL	.	8b
.	8G#J	.	8b#XJ
=29	=29	=29	=29
4rc	4rEE	2.AA\	[2.cc#
2c#	4A	.	.
.	4E	.	.
=30	=30	=30	=30
4rc	2.D#	4r	8cc#L]
.	.	.	8c#
2c#	.	4r	8d#
.	.	.	8f##X
.	.	4AA\	8dd#
.	.	.	8cc#J
*v	*v	*v	*
=31	=31
2.GG# 2.D# 2.c#	8aL
.	8g#
.	8cc#
.	8dd#
.	8bb
.	8aaJ
=32	=32
2.G# 2.B#X	8gg#L
.	8ddn
.	8ee
.	8dd#X
.	8f##X
.	8g#J
=33	=33
*^	*
4rc	[2.F#	8r
.	.	8c#
4rc	.	4.b
[4c#	.	.
.	.	8a
=34	=34	=34
*	*	*^
4c#]	2.F#]	8g#L	8rc
.	.	8a	[8a
4f#	.	8b	2a]
.	.	8cc#	.
4c#	.	8ee#X	.
.	.	8ff#J	.
*	*	*v	*v
=35	=35	=35
*	*^	*
4rc	4rEE	[2.En\	8r
.	.	.	8cc#
4rc	8rEE	.	4.bb
.	[4.c#	.	.
8g#L	.	.	.
[8f#J	.	.	8aa
=36	=36	=36	=36
2f#]	4c#]	2.E\]	8gg#L
.	.	.	8aa
.	4A	.	8bb
.	.	.	8ccc#
4a	4c#	.	8eee#X
.	.	.	8fff#J
*v	*v	*v	*
=37	=37
4D#	8cccc#L
.	8bbbJ
4B 4a	4ggg#
4r	4fff#
=38	=38
4E	8ccc#L
.	8bbJ
4B 4a	4ff#
4r	4ee
=39	=39
4D#	8cc#L
.	8bJ
4B 4a	4g#
4r	[4f#
=40	=40
*^	*
*	*^	*
4rc	4rEE	2.Dn\	8f#L]
.	.	.	8g#
8rc	2B#X	.	8a
8g#	.	.	8ee#X
8e#XL	.	.	8gg#
8f#J	.	.	8ff#J
=41	=41	=41	=41
4c#	4c#	[2.C#\	8r
.	.	.	8A
[2en	[2A	.	4.g#
.	.	.	8f#
=42	=42	=42	=42
2.e]	4A]	2.C#\]	8e#XL
.	.	.	8f#
.	2F#	.	8g#
.	.	.	8a
.	.	.	8een
.	.	.	8ff#J
=43	=43	=43	=43
4rc	4rEE	[2.Cn\	8r
.	.	.	8a
[2e	[2A	.	4.gg#
.	.	.	8ff#
=44	=44	=44	=44
2.e]	4A]	2.C\]	8ee#XL
.	.	.	8ff#
.	2F#	.	8gg#
.	.	.	8aa
.	.	.	8aaa
.	.	.	8ggg#J
*	*v	*v	*
=45	=45	=45
4rc	2Cn	8ggg#L
.	.	8fff#J
4F# 4e	.	4bb
4rc	4rEE	4aa#X
=46	=46	=46
4rc	2BB	8gg#L
.	.	8ff#J
4F# 4e	.	4cc#
4rc	4rEE	4b
=47	=47	=47
4rc	2AA#X	8g#L
.	.	8f#J
2F# 2e	.	4c#
.	4rEE	[4B#X
=48	=48	=48
2.F# 2.e	2AAn	8B#L]
.	.	8c#
.	.	8d#
.	.	8c#
.	4AA#X	8g#
.	.	8f#J
=49	=49	=49
*	*	*^
4rc	[2.BB	8raa	4rc
.	.	8Bn	.
4rc	.	8eL	[2e
.	.	8f#J	.
[4A	.	8cc#L	.
.	.	16r	.
.	.	16g#Jk	.
=50	=50	=50	=50
4A]	2BB]	4b	4e]
[2A	.	8c#L	8rc
.	.	8d#	[4.d#
.	4BB	8g#	.
.	.	8f#J	.
=51	=51	=51	=51
4A]	2C#	8f#L	8d#L]
.	.	8eJ	8eJ
4G#	.	4.b	4e
4E	4GG#	.	4B
.	.	8d#	.
=52	=52	=52	=52
[2.E	4rEE	2d#	2.B
.	4GG#	.	.
.	4GGn	[4c#	.
=53	=53	=53	=53
4E]	4FF#	8c#L]	4rc
.	.	8f#	.
4rc	4rEE	8b	[2b
.	.	8cc#J	.
[4e	[4F#	8gg#L	.
.	.	16r	.
.	.	16dd#Jk	.
=54	=54	=54	=54
4e]	2F#]	4ff#	4b]
[2e	.	8g#L	8rc
.	.	8a#X	[4.a#
.	4F#	8dd#	.
.	.	8cc#J	.
=55	=55	=55	=55
4e]	2G#	8cc#L	8a#L]
.	.	8bJ	8bJ
4d#	.	4.ff#	4b
4B	4D#	.	4f#
.	.	8a#X	.
=56	=56	=56	=56
2.B	4rEE	2a#X	2.f#
.	4D#	.	.
.	4Dn	[4g#	.
*	*	*v	*v
=57	=57	=57
*	*^	*
2f#	8BL	2.C#\	8g#L]
.	8A#XJ	.	8a#X
.	4G#	.	8b
.	.	.	8dd#J
4e	4B	.	12eeL
.	.	.	12aa#X
.	.	.	12gg#J
=58	=58	=58	=58
2.e	4B	2.F#\	8ff#L
.	.	.	8b
.	4A#X	.	8dd#
.	.	.	8cc#
.	4An	.	8g#
.	.	.	[8f#J
=59	=59	=59	=59
2e	8AL	2.BB\	8f#L]
.	8G#J	.	8g#
.	4F#	.	8a
.	.	.	8cc#J
4dn	4A	.	12ddnL
.	.	.	12gg#
.	.	.	12ff#J
=60	=60	=60	=60
2dn	4A	2.E\	8eeL
.	.	.	8a
.	4G#	.	8cc#
.	.	.	8e
4rc	8F##XL	.	8b
.	8G#J	.	8b#XJ
=61	=61	=61	=61
4.c#	16%3G#	2.AA\	[2.cc#
.	16%3A	.	.
4.e	16%3G#	.	.
.	16%3Gn	.	.
=62	=62	=62	=62
4rc	2.F#	4r	8cc#L]
.	.	.	8e
2e	.	4r	8f#
.	.	.	8cc#
.	.	4AA#X\	8ff#
.	.	.	8eeJ
=63	=63	=63	=63
4rc	[2.F#	4r	8r
.	.	.	8eL
[2e	.	4r	8f#
.	.	.	8ccn
.	.	[4AA#X\	8ff#
.	.	.	8eeJ
=64	=64	=64	=64
2.e]	2.F#]	2.AA#\]	8ff#L
.	.	.	8cccn
.	.	.	8fff#
.	.	.	8eee
.	.	.	8ff#
.	.	.	8eeJ
*	*v	*v	*
=65	=65	=65
4rc	[2.BB	8r
.	.	8b
4rc	.	8eeL
.	.	8ff#J
[4An [4e	.	8ccc#XL
.	.	16r
.	.	16gg#Jk
=66	=66	=66
4A] 4e]	4BB]	4bb
4rc	2BB	8cc#L
.	.	8dd#
4A 4d#	.	8gg#
.	.	8ff#J
=67	=67	=67
4rc	2.BB	8ff#L
.	.	8eeJ
4G# 4e 4g#	.	4.bb
4G# 4e 4g#	.	.
.	.	8dd#
=68	=68	=68
4rc	2.BBn	2dd#
4F# 4e 4a#X	.	.
4F# 4e 4a#	.	4cc#
=69	=69	=69
4rc	[2.BB	8r
.	.	8bL
4rc	.	8ee
.	.	8ff#
[4An [4e	.	8ccc#
.	.	8gg#
=70	=70	=70
4A] 4e]	4BB]	8bbJ
.	.	8f#L
4rc	4rEE	8b
.	.	8cc#
4A 4d#	4BB	8gg#
.	.	8dd#
=71	=71	=71
*	*^	*
2.ryy	4rEE	4BBB\	8ff#J
.	.	.	8BL
.	4rEE	[2BB\	8e
.	.	.	8g#
.	[4G#	.	8ee
.	.	.	8dd#J
=72	=72	=72	=72
2.e	4G#]	2BB\]	8cc#L
.	.	.	8b
.	4.c#	.	8e
.	.	.	8f#J
.	.	4BB\	4g#
.	8B	.	.
=73	=73	=73	=73
4rc	4B	[2.C#\	8r
.	.	.	8eL
[2e	4A#X	.	8f#
.	.	.	8a#X
.	4G#	.	8ee
.	.	.	8ff#J
=74	=74	=74	=74
2.e]	2.A#X	2.C#\]	8ddd#L
.	.	.	8ccc#
.	.	.	8aa#X
.	.	.	8ee#X
.	.	.	8gg#
.	.	.	8ff#J
=75	=75	=75	=75
4rc	4c#	[2.D#\	8r
.	.	.	8f#L
[2f#	4B#X	.	8g#
.	.	.	8b#X
.	4A#X	.	8ff#
.	.	.	8gg#J
=76	=76	=76	=76
2.f#]	2.B#X	2.D#\]	8eeeL
.	.	.	8ddd#
.	.	.	8bb#X
.	.	.	8ff##X
.	.	.	8aan
.	.	.	8gg#J
=77	=77	=77	=77
*	*	*	*^
4e	2c#	2.E\	8raa	4rc
.	.	.	4ccc#	.
2g#	.	.	.	2cc#
.	.	.	8bbn	.
.	4G#	.	4aa#X	.
=78	=78	=78	=78	=78
4rc	4rEE	2.E\	8raa	4rc
.	.	.	4gg#	.
8rc	2c#	.	.	2cc#
8a#X	.	.	8ff##X	.
8f##XL	.	.	8aa#XL	.
8g#J	.	.	8gg#J	.
*	*	*	*v	*v
=79	=79	=79	=79
4rc	4rEE	2D#\	8r
.	.	.	8gg#L
2g#	4.B	.	8cc##X
.	.	.	8ee
.	.	4F#X\	8dd#
.	8d#	.	8bJ
*v	*v	*v	*
=80	=80
*	*^
*	*	*^
8r	4.b	4.g#	2.c#X\
8F#L	.	.	.
8D#	.	.	.
8F#	4.a#X	4g#	.
8E	.	.	.
8D#J	.	8f##X	.
*	*v	*v	*v
=81||	=81||
*k[f#c#g#d#a#]	*k[f#c#g#d#a#]
*^	*^
4GGG# 4GG#	4rEE	8g#	8B 8d#
.	.	4gg#	8rc
8EL 8e	4B	.	4g#
8D#J 8d#	.	8ff#X	.
4D# 4d#	4G#	8a#L	4g#
.	.	8bJ	.
=82	=82	=82	=82
4rc	4rEE	2ee	4rc
4C##X 4c##X	4B	.	4g#
4D# 4d#	4B	4dd#	4g#
*v	*v	*	*
=83	=83	=83
4GGG# 4GG#	8raa	4rc
.	4ee	.
4F# 4B#X 4f#	.	4g#
.	8dd#	.
4E 4c#X 4e	8f##XL	4rc
.	8g#J	.
=84	=84	=84
*^	*	*
4rc	4rEE	2cc#	4rc
4E 4e	2G#	.	4c#
4D# 4d#	.	4bn	4d#
*v	*v	*	*
=85	=85	=85
4CC# 4C#	8raa	2.e
.	8g#	.
2C# 2B	12g#L	.
.	12a#	.
.	12g#J	.
.	8f##XL	.
.	8g#J	.
*	*v	*v
=86	=86
4C#	8.eeL
.	16dd#Jk
4B 4g#	4.ff#X
4r	.
.	8ee
=87	=87
*^	*
4rc	4E	4.dd#
2g#	4B	.
.	.	8g#
.	4A#	8dd#L
.	.	8cc#J
=88	=88	=88
4rc	4D#	2b
4g#	2c#	.
4f##X	.	4a#
=89	=89	=89
*	*	*^
4GGG# 4GG#	4rEE	8g#	8B 8d#
.	.	4gg#	8rc
8EL 8e	4B	.	4g#
8D#J 8d#	.	8ff#X	.
4D# 4d#	4G#	8a#L	4g#
.	.	8bJ	.
*v	*v	*	*
=90	=90	=90
4r	2ee	8rc
.	.	4cc#
4C##X 4G# 4c##X	.	.
.	.	8b
4D# 4B 4d#	4dd#	8f##XL
.	.	8g#J
=91	=91	=91
4GGG# 4GG#	8raa	4rc
.	4ee	.
4F# 4B#X 4f#	.	4g#
.	8dd#	.
4E 4c#X 4e	8f##XL	4rc
.	8g#J	.
=92	=92	=92
*^	*	*
4rc	4rEE	2cc#	8rc
.	.	.	4a#
4.E 4.e	4c#	.	.
.	.	.	8g#
.	4G#	4bn	8c##XL
8D# 8d#	.	.	8d#J
*v	*v	*	*
=93	=93	=93
4CC#X 4C#X	8raa	4f#
.	8g#	.
2C# 2B	12g#L	4e
.	12a#	.
.	12g#J	.
.	8f##XL	4rc
.	8g#J	.
*	*v	*v
=94	=94
4C#	8.eeL
.	16dd#Jk
4B 4g#	4.ff#X
4r	.
.	8ff#
=95	=95
*^	*
4rc	4G#	4.ff#
2b	4d#	.
.	.	8b
.	4c#	8ff#L
.	.	8eeJ
=96	=96	=96
4rc	4F#	2dd#
4b	2e	.
4a#	.	4cc#
*v	*v	*
=97	=97
*	*^
4BB	8raa	4rc
.	8ff#	.
2F# 2e	4.b	2f#
.	8cc#	.
=98	=98	=98
*^	*	*
4BB	4rEE	8raa	4rc
.	.	8ff#	.
4d#	2F#	4.dd#	2a#
4c#	.	.	.
.	.	8ee	.
=99	=99	=99	=99
*	*^	*	*
4rc	4rEE	[2.BB\	12gg#L	4rc
.	.	.	12a#	.
.	.	.	12cc#J	.
[2e	[2F#	.	8gg#L	[2a#
.	.	.	8ff#	.
.	.	.	8b#X	.
.	.	.	8cc#J	.
=100	=100	=100	=100	=100
4.e]	2F#]	2BB\]	8eeL	4.a#]
.	.	.	8dd#	.
.	.	.	8cc#	.
8d#	.	.	8b	8bn
4rc	4rEE	4r	8g#	4rc
.	.	.	8d#J	.
*v	*v	*v	*	*
=101	=101	=101
4BBB	8raa	4rc
.	8f#	.
4E	4.B	2F#
4FF#	.	.
.	8c#	.
=102	=102	=102
4BBB	8raa	4rc
.	8f#	.
4C#	4.d#	2A#
[4FF#	.	.
.	8e	.
=103	=103	=103
2.FF#] 2.E	12g#L	12rc
.	12A#	[6A#
.	12c#J	.
.	8g#L	2A#]
.	8f#	.
.	8B#X	.
.	8c#J	.
=104	=104	=104
*^	*	*
2G#	[2BB	2e	2.Bn
8F#	8BB]	4d#	.
8BBB 8BB	8rEE	.	.
=105	=105	=105	=105
8E#XL	4BB	12dd#L	4rc
.	.	12d#	.
8F#J	.	.	.
.	.	12anJ	.
4An	4BB	8cc#L	4d# 4f#
.	.	8b	.
4rc	4BBB 4BB	8e#X	4An 4d#
.	.	8f#J	.
*v	*v	*	*
=106	=106	=106
[2BBB#X [2BB#X	4.an	4An 4d#
.	.	4A 4d#
.	8g#	.
8BBB#L] 8BB#]	8g#L	4A 4d#
8CC#J 8C#	8f#J	.
=107	=107	=107
*^	*	*
8F##XL	4C#	12ee#XL	4rc
.	.	12e#X	.
8G#J	.	.	.
.	.	12bJ	.
4B	4C#	8ddnL	4e#
.	.	8cc#	.
4CC# 4C#	4rEE	8f##X	4B 4e#
.	.	8g#J	.
*v	*v	*	*
=108	=108	=108
[2CC##X [2C##X	4.b	4B 4e#X
.	.	4B 4e#
.	8a#X	.
8CC##L] 8C##]	8a#L	4B 4e#
8DD#J 8D#	8g#J	.
=109	=109	=109
*^	*	*
8G##XL	4D#	12ff##XL	4rc
.	.	12f##X	.
8A#J	.	.	.
.	.	12cc#J	.
4.c#X	4.D#	8.eenL	4.f## 4.a#
.	.	16dd#Jk	.
.	.	8dd#	.
8DD# 8D#	8rEE	8raa	8rc
=110	=110	=110	=110
8A#L	4D#	12gg#L	4rc
.	.	12g#	.
8BJ	.	.	.
.	.	12cc##XJ	.
4.c##X	4.D#	8.ff#XL	4.g# 4.b
.	.	16eeJk	.
.	.	8ee	.
8DD# 8D#	8rEE	8raa	8rc
=111	=111	=111	=111
8BL	4D#	12aanL	4rc
.	.	12an	.
8B#XJ	.	.	.
.	.	12dd#J	.
4.d#	4.D#	8.ff#L	4.a 4.b#X
.	.	16ee#XJk	.
.	.	8ee#	.
8DD# 8D#	8rEE	8raa	8rc
=112	=112	=112	=112
8B#XL	4D#	12aa#XL	4rc
.	.	12a#X	.
8c#J	.	.	.
.	.	12cc#J	.
8f#L	4D# 4c#	8eenL	4a#X 4cc#
8e#X	.	8ee#X	.
8en	4D# 4c#	8ff#	4a# 4cc#
8d#J	.	8ff##XJ	.
=113	=113	=113	=113
4GGG# 4GG#	4rEE	8raa	4rc
.	.	4gg#	.
8EL 8e	4Bn	.	4g#
8D#J 8d#	.	8ff#X	.
4D# 4d#	4G#	8a#L	4g#
.	.	8bJ	.
*v	*v	*	*
=114	=114	=114
4r	2ee	8rc
.	.	4cc#
4C##X 4G# 4c##X	.	.
.	.	8b
4D# 4B 4d#	4dd#	8f##XL
.	.	8g#J
=115	=115	=115
4GGG# 4GG#	8raa	4rc
.	4ee	.
4F# 4B#X 4f#	.	4g#
.	8dd#	.
4E 4c# 4e	8f##XL	4rc
.	8g#J	.
=116	=116	=116
*^	*	*
4rc	4rEE	2cc#	8rc
.	.	.	4a#
4.E 4.e	4c#	.	.
.	.	.	8g#
.	4G#	4bn	8c##XL
8D# 8d#	.	.	8d#J
*v	*v	*	*
=117	=117	=117
4CC#X 4C#X	8raa	4f#
.	8g#	.
2C# 2B	12g#L	4e
.	12a#	.
.	12g#J	.
.	8f##XL	4rc
.	8g#J	.
*	*v	*v
=118	=118
4C#	8.eeL
.	16dd#Jk
4B 4g#	4.ff#X
4r	.
.	8ee
=119	=119
*^	*
4rc	4rEE	4.dd#
4f#	2C# 2B	.
.	.	8g#
4e	.	8b#XL
.	.	8cc#J
=120	=120	=120
4rc	2C#	2dd#
4F# 4A# 4f#	.	.
4F##X 4A# 4f##X	4Cn	4ee
*v	*v	*
=121	=121
*	*^
4BBB 4BB	8raa	4rc
.	4ee	.
4G# 4B 4g#	.	2e
.	8dd#	.
4B	8f##XL	.
.	8g#J	.
=122	=122	=122
*^	*	*
4rc	4rEE	2cc#	8rc
.	.	.	4f#X
4A#	4BB	.	.
.	.	.	8e
4B	4BB	4b	8F##XL
.	.	.	8G#J
=123	=123	=123	=123
*	*^	*	*
4rc	2An	4r	8raa	4rc
.	.	.	4ddn	.
4f#X	.	2BB/	.	4dn
.	.	.	8cc#	.
.	.	.	8qdd/	.
4e#X	4G#	.	8cc#L	4d
.	.	.	8bJ	.
=124	=124	=124	=124	=124
8f#	4An	4r	8anL	4c#
8rc	.	.	8g#	.
4rc	8AL	8BB\L	8g#	8c#L
.	8AJ	8BB\J	8f#J	8c#J
4rc	4A	4BB\	4f#	4c#
*v	*v	*v	*	*
*	*v	*v
=125	=125
4BBB 4BB	8r
.	4aan
4An 4c# 4an	.
.	8gg#
4A 4f# 4a	8b#XL
.	8cc#J
=126	=126
*	*^
4r	2ff#	8rc
.	.	4dd#
4An 4f# 4an	.	.
.	.	8cc#
4A 4c# 4a	4een	8e#XL
.	.	8f#J
*	*v	*v
=127	=127
4BBB 4BB	8r
.	4aan
4An 4cn 4an	.
.	8ggn
4A 4fn 4a	8bL
.	8ccnJ
=128	=128
*	*^
4r	2ffn	8rc
.	.	4ddn
4A# 4fn 4a#	.	.
.	.	8ccn
4A# 4cn 4a#	4ee	8eL
.	.	8fnJ
*	*v	*v
=129||	=129||
*k[f#c#g#d#]	*k[f#c#g#d#]
*	*^
4BB 4B	8dd#X	8f#X
.	8ccc#XL	8rc
4A 4B 4d# 4a	8ee#X	4rc
.	8ff#	.
4r	8aa	4rc
.	8gg#J	.
*	*v	*v
=130	=130
2.r	8bbL
.	8aa
.	8b#X
.	8cc#
.	8ff#
.	8ee#XJ
=131	=131
2.r	8gg#L
.	8ff#
.	8g#
.	8a
.	8cc#
.	8b#XJ
=132	=132
2.r	8dd#L
.	8cc#
.	8e#X
.	8f#
.	8bn
.	8aJ
=133	=133
2.r	8dd#L
.	8cc#
.	8e#X
.	8f#
.	8b
.	8aJ
=134	=134
2.r	8dd#L
.	8cc#
.	8e#X
.	8f#
.	8b
.	8aJ
=135	=135
2.r	8dd#L
.	8cc#
.	8e#X
.	8f#
.	8b
.	8aJ
=136	=136
*^	*^
2.A	2C#	8g#L	2.en
.	.	8f#	.
.	.	8e#X	.
.	.	8f#	.
.	4Cn	8g#	.
.	.	8f#J	.
=137||	=137||	=137||	=137||
4rc	[2.BB	8raa	4rc
.	.	8B	.
4rc	.	8eL	[2en
.	.	8f#J	.
[4A	.	8cc#L	.
.	.	16r	.
.	.	16g#Jk	.
=138	=138	=138	=138
4A]	2BB]	4b	4e]
[2A	.	8c#L	8rc
.	.	8d#	[4.d#
.	4BB	8g#	.
.	.	8f#J	.
=139	=139	=139	=139
4A]	2C#	8f#L	8d#L]
.	.	8eJ	8eJ
4G#	.	4.b	4e
4E	4GG#	.	4B
.	.	8d#	.
=140	=140	=140	=140
[2.E	4rEE	2d#	2.B
.	4GG#	.	.
.	4GGn	[4c#	.
=141	=141	=141	=141
4E]	4FF#	8c#L]	4rc
.	.	8f#	.
4rc	4rEE	8b	[2b
.	.	8cc#J	.
[4e	[4F#	8gg#L	.
.	.	16r	.
.	.	16dd#Jk	.
=142	=142	=142	=142
4e]	2F#]	4ff#	4b]
[2e	.	8g#L	8rc
.	.	8a#X	[4.a#
.	4F#	8dd#	.
.	.	8cc#J	.
=143	=143	=143	=143
4e]	2G#	8cc#L	8a#L]
.	.	8bJ	8bJ
4d#	.	4.ff#	4b
4B	4D#	.	4f#
.	.	8a#X	.
=144	=144	=144	=144
2.B	4rEE	2a#X	2.f#
.	4D#	.	.
.	4Dn	[4g#	.
*	*	*v	*v
=145	=145	=145
*	*^	*
2f#	8BL	2.C#\	8g#L]
.	8A#XJ	.	8a#X
.	4G#	.	8b
.	.	.	8dd#J
4e	4B	.	12eeL
.	.	.	12aa#X
.	.	.	12gg#J
=146	=146	=146	=146
2.e	4B	2.F#\	8ff#L
.	.	.	8b
.	4A#X	.	8dd#
.	.	.	8cc#
.	4An	.	8g#
.	.	.	[8f#J
=147	=147	=147	=147
2e	8AL	2.BB\	8f#L]
.	8G#J	.	8g#
.	4F#	.	8a
.	.	.	8cc#J
4dn	4A	.	12ddnL
.	.	.	12gg#
.	.	.	12ff#J
=148	=148	=148	=148
2.dn	4A	2.E\	8eeL
.	.	.	8a
.	4G#	.	8cc#
.	.	.	8e
.	8F##XL	.	8b
.	8G#J	.	8b#XJ
=149	=149	=149	=149
4.c#	16%3G#	2.AA\	[2.cc#
.	16%3A	.	.
4.e	16%3G#	.	.
.	16%3Gn	.	.
=150	=150	=150	=150
4rc	2.F#	4r	8cc#L]
.	.	.	8e
2e	.	4r	8f#
.	.	.	8cc#
.	.	4AA#X\	8ff#
.	.	.	8dd#J
*	*v	*v	*
=151	=151	=151
2e	2.BB 2.An	8cc#L
.	.	8b
.	.	8ee
.	.	8ff#
4d#	.	8bb
.	.	8gg#J
=152	=152	=152
*	*^	*
4B	2G#	2.BB\	8ff#L
.	.	.	8ee
2e	.	.	8cc#
.	.	.	8b
.	4B	.	8g#
.	.	.	8aJ
*v	*v	*v	*
=153	=153
4EE	8r
.	8b
4BB	8eeL
.	8ff#J
4A 4e 4a	8ccc#L
.	16r
.	16gg#Jk
=154	=154
4r	4bb
4BB	8cc#L
.	8dd#J
4A 4d# 4a	8.gg#L
.	16ff#Jk
=155	=155
4BB	8ff#L
.	8eeJ
4G# 4e 4g#	4.bb
4G# 4B 4g#	.
.	8dd#
=156	=156
4BB	2dd#
4Gn 4B 4e 4gn	.
8G 8A#X 8e 8g	4cc#
8r	.
=157	=157
*^	*^
*	*^	*	*
2.An	4rEE	4r	8raa	4rc
.	.	.	8b	.
.	2BB	4r	4.e	2B
.	.	4EE/	.	.
.	.	.	8f#	.
=158	=158	=158	=158	=158
2G#	4rEE	4r	8raa	4rc
.	.	.	8b	.
.	2BB	4r	4.g#	2d#
4F#	.	4EE/	.	.
.	.	.	8a	.
*	*v	*v	*	*
=159	=159	=159	=159
2G#	4rEE	12cc#L	12rc
.	.	12d#	[6d#
.	.	12f#J	.
.	2BB	8cc#L	2d#_
.	.	8b	.
4A	.	8e#X	.
.	.	8f#J	.
=160	=160	=160	=160
2c#	4rEE	2a	2d#]
.	2BB	.	.
4B	.	4g#	4en
*v	*v	*	*
*	*v	*v
=161	=161
4EE	8r
.	8b
4BB	8eeL
.	8ff#J
[4A [4e [4a	8ccc#L
.	16r
.	16gg#Jk
=162	=162
4A] 4e] 4a]	4bb
4BB	8cc#L
.	8dd#
4A 4d# 4a	8gg#
.	8ff#J
=163	=163
4BB	8ff#L
.	8eeJ
4G# 4e 4g#	4.bb
4G# 4B 4g#	.
.	8dd#
=164	=164
4BB	2dd#
4Gn 4B 4e 4gn	.
4G 4A#X 4e 4g	4cc#
=165	=165
*^	*^
*	*^	*	*
2.An	4rEE	4r	8raa	4rc
.	.	.	8b	.
.	2BB	4r	4.e	2B
.	.	4EE/	.	.
.	.	.	8f#	.
=166	=166	=166	=166	=166
2G#	4rEE	4r	8raa	4rc
.	.	.	8b	.
.	2BB	4r	4.g#	2d#
4F#	.	4EE/	.	.
.	.	.	8a	.
*	*v	*v	*	*
=167	=167	=167	=167
2G#	4rEE	12cc#L	12rc
.	.	12d#	[6d#
.	.	12f#J	.
.	2BB	8cc#L	2d#_
.	.	8b	.
4A	.	8e#X	.
.	.	8f#J	.
=168	=168	=168	=168
2c#	4rEE	2a	2d#]
.	2BB	.	.
4B	.	4g#	4en
=169	=169	=169	=169
2.A	2.EE 2.BB	12cc#L	12rc
.	.	12d#	[6d#
.	.	12f#J	.
.	.	8cc#L	2d#]
.	.	8b	.
.	.	8e#X	.
.	.	8f#J	.
=170	=170	=170	=170
2F#	2.EE 2.BB	2a	2.d#
4G#	.	4g#	.
*v	*v	*	*
*	*v	*v
=171	=171
2.EEE 2.EE 2.BB 2.G#	2.e 2.g#
==	==
*-	*-
!!!system-decoration: {(s1,s2)}
